X:1
T:Cadogan, 10.10.10.10
T:Cadogan, 10.10.10.10
T:George Forbes (1813–1883)
T:Public Domain Courtesy of the Cyber Hymnal™
C:George Forbes (1813–1883)
Z:Public Domain
Z:Courtesy of the Cyber Hymnal™
%%score ( 1 2 ) ( 3 4 )
L:1/8
Q:1/4=115
M:2/2
K:Bb
V:1 treble 
V:2 treble 
V:3 bass 
V:4 bass 
V:1
 [FB]4 [FA]2 [FA]2 | [FB]4 [DF]4 | [EG]2 [EA]2 [DB]2 [Fc]2 | [Fd]8 | [Fd]4 [^Fc]2 [GB]2 | %5
 [DA]4 [DB]4 | [EG]2 [EG]2 [EA]2 [EA]2 | [DB]8 | [FA]4 [FA]2 [FA]2 | G4 d4 | %10
 [=Ed]2 [Ec]2 [Gc]2 [GB]2 | [FA]8 | (B2 d2) [^Fc]2 [GB]2 | [DA]4 [DB]4 | [EG]2 [EG]2 [EA]2 [EA]2 | %15
 [DB]8 |] %16
V:2
 x8 | x8 | x8 | x8 | x8 | x8 | x8 | x8 | x8 | G4 (G2 F2) | x8 | x8 | ^F4 x4 | x8 | x8 | x8 |] %16
V:3
 [B,D]4 [F,C]2 [E,C]2 | [D,B,]4 [B,,B,]4 | [E,B,]2 [C,F,]2 [B,,F,]2 [F,A,]2 | [B,,B,]8 | %4
 [B,D]4 [A,D]2 [G,D]2 | (D2 C2) [G,B,]4 | [E,B,]2 [C,C]2 [F,C]2 [F,C]2 | [B,,F,B,]8 | %8
 [F,C]4 [D,D]2 [D,D]2 | [B,,D]4 [=B,,G,]4 | [C,G,]2 [C,G,]2 [=E,C]2 [E,C]2 | (C4 E4) | %12
 [B,D]4 [A,D]2 [G,D]2 | (D2 C2) [G,B,]4 | [E,B,]2 [C,C]2 [F,C]2 [F,C]2 | [B,,B,]8 |] %16
V:4
 x8 | x8 | x8 | x8 | x8 | ^F,4 x4 | x8 | x8 | x8 | x8 | x8 | F,8 | x8 | ^F,4 x4 | x8 | x8 |] %16

